X:1
T:Title
%%score { ( 1 3 ) | ( 2 4 ) }
L:1/8
M:4/4
K:Ab
V:1 treble nm="Grand Piano"
V:3 treble 
V:2 bass 
V:4 bass 
V:1
 z4 z2[Q:1/4=106] [CE][CF] | [CA]2 [CA]2 G2 F>G | [CA]2 [CE]2 [Ec]4 | z4 d4 |[M:3/4] c2 A2 .[Ge]2 | %5
[M:1/4] [EGc][DGB] |[M:4/4] A2 A2 G2 F>G | [CA]2 [CE]2 [Ec]4 | [DB]2 [DE]2 [Ge]3 [Gc] | %9
[M:3/4] [CEA]6 |] %10
V:2
 z4 z2 [A,,E,][A,,E,] | [A,,A,]2 [A,,A,]2 [E,B,D]2 [E,G,D]>[E,B,D] | [A,,A,]2 [A,,A,]2 [A,,A,]4 | %3
 [E,G,D]2 [E,D]2 [E,B,]4 |[M:3/4] [A,E]2 [A,CE]2 z[K:treble] d |[M:1/4][K:bass] E,E, | %6
[M:4/4] [A,CE]2 [A,CE]2 [E,B,D]2 [E,G,D]>[E,B,D] | [A,,A,]2 [A,,A,]2 [A,,A,]4 | %8
 [E,G,]2 [E,G,]2 [E,B,]3 [E,D] |[M:3/4] [A,,A,]6 |] %10
V:3
 x8 | x8 | x8 | B2 E2 G2 F2 |[M:3/4] x6 |[M:1/4] x2 |[M:4/4] x8 | x8 | x8 |[M:3/4] x6 |] %10
V:4
 x8 | x8 | x8 | x8 |[M:3/4] z2 z2 [E,B,]2[K:treble] |[M:1/4][K:bass] x2 |[M:4/4] x8 | x8 | x8 | %9
[M:3/4] x6 |] %10

